X:5
T: Úgy elmegyel meglátjátok
L:1/8
K:F
gggf | cc g2<g2 |
ggaf | cc d2<d2 |
c2 f2 d2 f2 | FF B2 < B2 |
c2 f2 d2 f2 | | FF G2 < G2 |

